24x24/apps/octopi.svg

<svg xmlns="http://www.w3.org/2000/svg" width="24" height="24" version="1">
 <g transform="translate(1 1)">
  <path fill="#3fc778" d="m9.8236 2c-3.7645 0-6.7954 3.0465-6.8209 6.8399h-0.00276v10.259c0 1.0526 0.70714 1.8999 1.75 1.8999 1.0428 0 1.75-0.44738 1.75-1.4999 0 1.0526 1.2072 1.4999 2.25 1.4999 1.2096 0.01646 2.2232-0.61794 2.25-1.4999 0 1.0526 1.2071 1.4999 2.25 1.4999 1.2096 0.01646 2.2232-0.61794 2.25-1.4999 0 1.0526 0.70719 1.4999 1.75 1.4999s1.75-0.84739 1.75-1.8999v-10.26h-0.0028c-0.025-3.7925-3.056-6.839-6.82-6.839z"/>
  <rect opacity=".2" width="4" height="4" x="14" y="7.5" ry="2"/>
  <rect fill="#ecf0f1" width="4" height="4" x="14" y="7" ry="2"/>
  <rect opacity=".2" width="4" height="4" x="6" y="7.5" ry="2"/>
  <rect fill="#ecf0f1" width="4" height="4" x="6" y="7" ry="2"/>
  <rect fill="#494949" width="1" height="1" x="9" y="9" ry=".5"/>
  <path fill="#fff" opacity=".2" d="m9.8231 2c-3.764 0-6.7944 3.0465-6.8199 6.8399h-0.003v0.49999h0.00295c0.02535-3.7935 3.056-6.8399 6.8199-6.8399h2.354c3.764 0 6.7944 3.0465 6.8199 6.8399h0.003v-0.49999h-0.003c-0.026-3.7934-3.056-6.8399-6.82-6.8399h-2.354z"/>
  <path opacity=".2" d="m3.0002 19.099v0.49999c0 1.0526 0.70719 1.9004 1.75 1.9004s1.75-0.44741 1.75-1.5c0 1.0526 1.2072 1.5 2.25 1.5 1.2096 0.01646 2.2232-0.61799 2.25-1.5 0 1.0526 1.2072 1.5 2.25 1.5 1.2096 0.01646 2.2232-0.61799 2.25-1.5 0 1.0526 0.70719 1.5 1.75 1.5s1.75-0.84779 1.75-1.9004v-0.49999c0 1.0526-0.70719 1.9004-1.75 1.9004s-1.75-0.44741-1.75-1.5c-0.02676 0.88199-1.0404 1.5164-2.25 1.5-1.0428 0-2.25-0.44741-2.25-1.5-0.02675 0.88199-1.0404 1.5164-2.25 1.5-1.0428 0-2.25-0.44741-2.25-1.5 0 1.0526-0.70719 1.5-1.75 1.5s-1.75-0.84779-1.75-1.9004z"/>
  <rect fill="#494949" width="1" height="1" x="17" y="9" ry=".5"/>
 </g>
</svg>

<svg xmlns="http://www.w3.org/2000/svg" width="24" height="24" version="1"><g transform="translate(1 1)"><path fill="#3fc778" d="M9.824 2C6.059 2 3.028 5.046 3.003 8.84H3v10.259c0 1.053.707 1.9 1.75 1.9 1.043 0 1.75-.448 1.75-1.5 0 1.053 1.207 1.5 2.25 1.5 1.21.016 2.223-.618 2.25-1.5 0 1.053 1.207 1.5 2.25 1.5 1.21.016 2.223-.618 2.25-1.5 0 1.053.707 1.5 1.75 1.5s1.75-.848 1.75-1.9V8.839h-.003c-.025-3.793-3.056-6.84-6.82-6.84z"/><rect opacity=".2" width="4" height="4" x="14" y="7.5" ry="2"/><rect fill="#ecf0f1" width="4" height="4" x="14" y="7" ry="2"/><rect opacity=".2" width="4" height="4" x="6" y="7.5" ry="2"/><rect fill="#ecf0f1" width="4" height="4" x="6" y="7" ry="2"/><rect fill="#494949" width="1" height="1" x="9" y="9" ry=".5"/><path fill="#fff" opacity=".2" d="M9.823 2C6.06 2 3.03 5.046 3.003 8.84H3v.5h.003C3.03 5.546 6.06 2.5 9.823 2.5h2.354c3.764 0 6.794 3.046 6.82 6.84H19v-.5h-.003C18.971 5.047 15.941 2 12.177 2H9.823z"/><path opacity=".2" d="M3 19.099v.5c0 1.053.707 1.9 1.75 1.9S6.5 21.052 6.5 20c0 1.053 1.207 1.5 2.25 1.5 1.21.017 2.223-.618 2.25-1.5 0 1.053 1.207 1.5 2.25 1.5 1.21.017 2.223-.618 2.25-1.5 0 1.053.707 1.5 1.75 1.5S19 20.652 19 19.6v-.5c0 1.053-.707 1.9-1.75 1.9s-1.75-.447-1.75-1.5c-.027.882-1.04 1.517-2.25 1.5-1.043 0-2.25-.447-2.25-1.5-.027.882-1.04 1.517-2.25 1.5-1.043 0-2.25-.447-2.25-1.5 0 1.053-.707 1.5-1.75 1.5S3 20.152 3 19.1z"/><rect fill="#494949" width="1" height="1" x="17" y="9" ry=".5"/></g></svg>
